packages/synapse-interface/assets/chains/cronos.svg

<svg fill="none" height="48" viewBox="0 0 48 48" width="48" xmlns="http://www.w3.org/2000/svg"><rect fill="#051221" height="48" rx="24" width="48"/><g fill="#fff"><path d="m23.8363 32.4055 7.2773-4.1998-3.0292-1.7559-4.2481 2.4559-4.248-2.4559v-4.8998l4.248-2.4559 4.2481 2.4559 3.0292-1.7499-7.2773-4.2058-7.2832 4.2058v8.4056z"/><path clip-rule="evenodd" d="m8.25 15.003 15.5924-9.003 15.5803 9.003v18l-15.5803 8.997-15.5924-8.997zm15.5924 21.6628 10.9641-6.3299v-12.6718l-10.9641-6.3299-10.9702 6.3299v12.6718z" fill-rule="evenodd"/></g></svg>

<svg width="48" height="48" viewBox="0 0 48 48" fill="none" xmlns="http://www.w3.org/2000/svg">
<rect width="48" height="48" rx="24" fill="#051221"/>
<path d="M23.8363 32.4055L31.1136 28.2057L28.0844 26.4498L23.8363 28.9057L19.5883 26.4498V21.55L23.8363 19.0941L28.0844 21.55L31.1136 19.8001L23.8363 15.5943L16.5531 19.8001V28.2057L23.8363 32.4055Z" fill="white"/>
<path fill-rule="evenodd" clip-rule="evenodd" d="M8.25 15.003L23.8424 6L39.4227 15.003V33.003L23.8424 42L8.25 33.003V15.003ZM23.8424 36.6658L34.8065 30.3359V17.6641L23.8424 11.3342L12.8722 17.6641V30.3359L23.8424 36.6658Z" fill="white"/>
</svg>
